; generated by Slic3r 1.3.0 on 2022-03-16 at 21:30:32

; external perimeters extrusion width = 0.55mm (5.57mm^3/s)
; perimeters extrusion width = 0.58mm (11.78mm^3/s)
; infill extrusion width = 0.58mm (15.71mm^3/s)
; solid infill extrusion width = 0.58mm (3.93mm^3/s)
; top infill extrusion width = 0.58mm (2.95mm^3/s)

M107
M190 S65 ; set bed temperature and wait for it to be reached
M104 S205 ; set temperature
G28 ; home all axes
G1 Z5 F5000 ; lift nozzle

; Filament gcode

M109 S205 ; set temperature and wait for it to be reached
G21 ; set units to millimeters
G90 ; use absolute coordinates
M82 ; use absolute distances for extrusion
G92 E0
G1 Z0.500 F7800.000
G1 E-2.00000 F2400.00000
G92 E0
G1 X84.325 Y84.359 F7800.000
G1 E2.00000 F2400.00000
G1 F1800
G1 X85.282 Y83.427 E2.08439
G1 X86.021 Y82.744 E2.14789
G1 X87.024 Y81.861 E2.23227
G1 X87.795 Y81.216 E2.29578
G1 X88.835 Y80.389 E2.37969
G1 X89.588 Y79.819 E2.43932
G1 X90.403 Y79.229 E2.50282
G1 X91.504 Y78.472 E2.58721
G1 X92.347 Y77.924 E2.65071
G1 X93.485 Y77.223 E2.73509
G1 X94.354 Y76.718 E2.79860
G1 X95.526 Y76.075 E2.88298
G1 X97.260 Y75.200 E3.00564
G1 X98.474 Y74.641 E3.09002
G1 X99.397 Y74.242 E3.15353
G1 X100.637 Y73.744 E3.23791
G1 X101.515 Y73.416 E3.29707
G1 X102.464 Y73.083 E3.36057
G1 X103.736 Y72.673 E3.44496
G1 X104.700 Y72.388 E3.50846
G1 X105.991 Y72.042 E3.59284
G1 X106.968 Y71.805 E3.65635
G1 X108.275 Y71.524 E3.74073
G1 X109.262 Y71.337 E3.80419
G1 X110.582 Y71.121 E3.88862
G1 X111.578 Y70.983 E3.95213
G1 X112.906 Y70.833 E4.03651
G1 X113.907 Y70.745 E4.10001
G1 X115.241 Y70.662 E4.18441
G1 X116.244 Y70.624 E4.24779
G1 X117.582 Y70.607 E4.33229
G1 X118.588 Y70.620 E4.39579
G1 X119.923 Y70.670 E4.48017
G1 X121.861 Y70.811 E4.60283
G1 X123.190 Y70.954 E4.68724
G1 X124.186 Y71.087 E4.75072
G1 X125.506 Y71.296 E4.83510
G1 X126.495 Y71.478 E4.89861
G1 X127.803 Y71.753 E4.98299
G1 X128.781 Y71.985 E5.04647
G1 X129.689 Y72.219 E5.10565
G1 X130.974 Y72.585 E5.19004
G1 X131.934 Y72.884 E5.25354
G1 X133.199 Y73.314 E5.33792
G1 X134.143 Y73.660 E5.40143
G1 X135.386 Y74.153 E5.48581
G1 X136.311 Y74.546 E5.54931
G1 X137.528 Y75.100 E5.63370
G1 X138.432 Y75.539 E5.69720
G1 X139.620 Y76.152 E5.78159
G1 X140.501 Y76.636 E5.84509
G1 X141.650 Y77.304 E5.92900
G1 X143.300 Y78.343 E6.05213
G1 X144.405 Y79.094 E6.13651
G1 X145.223 Y79.680 E6.20002
G1 X146.290 Y80.486 E6.28450
G1 X147.076 Y81.111 E6.34785
G1 X148.101 Y81.969 E6.43229
G1 X148.856 Y82.633 E6.49580
G1 X149.837 Y83.541 E6.58018
G1 X150.556 Y84.241 E6.64355
G1 X151.216 Y84.909 E6.70284
G1 X152.131 Y85.883 E6.78723
G1 X152.801 Y86.633 E6.85074
G1 X153.666 Y87.652 E6.93512
G1 X154.296 Y88.432 E6.99846
G1 X155.111 Y89.494 E7.08300
G1 X155.703 Y90.307 E7.14651
G1 X156.462 Y91.407 E7.23089
G1 X157.013 Y92.249 E7.29439
G1 X157.718 Y93.387 E7.37894
G1 X158.224 Y94.253 E7.44229
G1 X158.870 Y95.423 E7.52667
G1 X159.334 Y96.315 E7.59017
G1 X159.921 Y97.516 E7.67456
G1 X160.714 Y99.293 E7.79747
G1 X161.213 Y100.528 E7.88160
G1 X161.567 Y101.470 E7.94510
G1 X162.006 Y102.732 E8.02949
G1 X162.312 Y103.687 E8.09279
G1 X162.688 Y104.972 E8.17738
G1 X162.946 Y105.942 E8.24075
G1 X163.258 Y107.248 E8.32550
G1 X163.466 Y108.228 E8.38877
G1 X163.712 Y109.541 E8.47316
G1 X163.872 Y110.534 E8.53665
G1 X164.052 Y111.858 E8.62104
G1 X164.162 Y112.856 E8.68441
G1 X164.245 Y113.791 E8.74369
G1 X164.332 Y115.124 E8.82808
G1 X164.372 Y116.129 E8.89158
G1 X164.392 Y117.466 E8.97597
G1 X164.354 Y119.408 E9.09863
G1 X164.280 Y120.743 E9.18309
G1 X164.200 Y121.744 E9.24652
G1 X164.060 Y123.073 E9.33090
G1 X163.930 Y124.071 E9.39440
G1 X163.724 Y125.391 E9.47879
G1 X163.544 Y126.380 E9.54224
G1 X163.272 Y127.689 E9.62668
G1 X163.058 Y128.605 E9.68609
G1 X162.811 Y129.576 E9.74934
G1 X162.447 Y130.865 E9.83392
G1 X162.151 Y131.823 E9.89722
G1 X161.725 Y133.089 E9.98160
G1 X161.381 Y134.034 E10.04511
G1 X160.892 Y135.278 E10.12950
G1 X160.500 Y136.204 E10.19300
G1 X159.950 Y137.422 E10.27738
G1 X159.513 Y138.328 E10.34088
G1 X158.903 Y139.517 E10.42527
G1 X158.421 Y140.399 E10.48877
G1 X157.752 Y141.556 E10.57316
G1 X157.227 Y142.414 E10.63667
G1 X156.505 Y143.529 E10.72057
G1 X155.389 Y145.129 E10.84370
G1 X154.586 Y146.197 E10.92810
G1 X153.962 Y146.986 E10.99160
G1 X153.106 Y148.014 E11.07606
G1 X152.445 Y148.769 E11.13948
G1 X151.539 Y149.752 E11.22387
G1 X150.840 Y150.475 E11.28736
G1 X149.887 Y151.412 E11.37175
G1 X149.202 Y152.053 E11.43102
G1 X148.455 Y152.724 E11.49440
G1 X147.437 Y153.593 E11.57893
G1 X146.657 Y154.225 E11.64231
G1 X145.599 Y155.041 E11.72669
G1 X144.788 Y155.635 E11.79019
G1 X143.690 Y156.397 E11.87458
G1 X142.850 Y156.950 E11.93808
G1 X141.722 Y157.652 E12.02198
G1 X140.031 Y158.625 E12.14512
G1 X138.848 Y159.251 E12.22966
G1 X137.950 Y159.698 E12.29301
G1 X136.736 Y160.265 E12.37762
G1 X135.818 Y160.667 E12.44090
G1 X134.581 Y161.171 E12.52528
G1 X133.640 Y161.527 E12.58878
G1 X132.757 Y161.841 E12.64795
G1 X131.487 Y162.258 E12.73233
G1 X130.526 Y162.547 E12.79576
G1 X129.236 Y162.900 E12.88022
G1 X128.259 Y163.142 E12.94372
G1 X126.954 Y163.430 E13.02810
G1 X125.967 Y163.622 E13.09162
G1 X124.649 Y163.844 E13.17600
G1 X123.654 Y163.987 E13.23949
G1 X122.326 Y164.144 E13.32394
G1 X121.325 Y164.236 E13.38738
G1 X119.992 Y164.326 E13.47176
G1 X118.987 Y164.369 E13.53527
G1 X117.651 Y164.392 E13.61966
G1 X115.709 Y164.358 E13.74231
G1 X114.375 Y164.288 E13.82669
G1 X113.372 Y164.211 E13.89020
G1 X112.041 Y164.074 E13.97468
G1 X111.045 Y163.946 E14.03809
G1 X109.724 Y163.743 E14.12247
G1 X108.734 Y163.566 E14.18597
G1 X107.425 Y163.298 E14.27035
G1 X106.445 Y163.071 E14.33386
G1 X105.151 Y162.738 E14.41825
G1 X104.184 Y162.462 E14.48175
G1 X102.908 Y162.065 E14.56614
G1 X101.956 Y161.741 E14.62963
G1 X100.702 Y161.281 E14.71401
G1 X99.828 Y160.935 E14.77331
G1 X98.903 Y160.547 E14.83668
G1 X97.682 Y159.999 E14.92122
G1 X96.777 Y159.565 E14.98457
G1 X95.584 Y158.956 E15.06912
G1 X94.703 Y158.478 E15.13246
G1 X93.544 Y157.812 E15.21685
G1 X92.685 Y157.289 E15.28035
G1 X91.562 Y156.566 E15.36473
G1 X90.730 Y156.000 E15.42824
G1 X89.643 Y155.222 E15.51263
G1 X88.841 Y154.616 E15.57613
G1 X87.795 Y153.784 E15.66051
G1 X86.318 Y152.523 E15.78317
G1 X85.331 Y151.619 E15.86767
G1 X84.608 Y150.923 E15.93105
G1 X83.669 Y149.972 E16.01545
G1 X82.981 Y149.239 E16.07894
G1 X82.090 Y148.242 E16.16333
G1 X81.439 Y147.476 E16.22682
G1 X80.847 Y146.749 E16.28599
G1 X80.029 Y145.693 E16.37038
G1 X79.433 Y144.883 E16.43387
G1 X78.668 Y143.787 E16.51831
G1 X78.113 Y142.948 E16.58176
G1 X77.404 Y141.816 E16.66614
G1 X76.892 Y140.950 E16.72965
G1 X76.240 Y139.784 E16.81404
G1 X75.772 Y138.894 E16.87754
G1 X75.179 Y137.696 E16.96192
G1 X74.756 Y136.784 E17.02542
G1 X74.224 Y135.558 E17.10981
G1 X73.846 Y134.626 E17.17332
G1 X73.379 Y133.382 E17.25723
G1 X72.756 Y131.534 E17.38036
G1 X72.375 Y130.253 E17.46474
G1 X72.112 Y129.283 E17.52824
G1 X71.794 Y127.984 E17.61263
G1 X71.580 Y127.002 E17.67614
G1 X71.328 Y125.690 E17.76052
G1 X71.173 Y124.765 E17.81968
G1 X71.028 Y123.770 E17.88318
G1 X70.868 Y122.444 E17.96756
G1 X70.773 Y121.443 E18.03106
G1 X70.680 Y120.109 E18.11545
G1 X70.635 Y119.106 E18.17885
G1 X70.608 Y117.769 E18.26334
G1 X70.613 Y116.763 E18.32682
G1 X70.653 Y115.435 E18.41076
G1 X70.780 Y113.481 E18.53435
G1 X70.912 Y112.159 E18.61826
G1 X71.038 Y111.161 E18.68177
G1 X71.237 Y109.840 E18.76615
G1 X71.412 Y108.850 E18.82966
G1 X71.677 Y107.540 E18.91405
G1 X71.901 Y106.560 E18.97754
G1 X72.231 Y105.265 E19.06193
G1 X72.504 Y104.297 E19.12539
G1 X72.899 Y103.020 E19.20982
G1 X73.220 Y102.067 E19.27332
G1 X73.677 Y100.811 E19.35771
G1 X74.045 Y99.875 E19.42121
G1 X74.565 Y98.644 E19.50559
G1 X74.979 Y97.728 E19.56910
G1 X75.560 Y96.524 E19.65349
G1 X75.988 Y95.690 E19.71267
G1 X76.465 Y94.805 E19.77615
G1 X77.128 Y93.645 E19.86052
G1 X77.649 Y92.785 E19.92403
G1 X78.369 Y91.659 E20.00842
G1 X78.932 Y90.827 E20.07190
G1 X79.708 Y89.738 E20.15630
G1 X80.312 Y88.934 E20.21981
G1 X81.141 Y87.886 E20.30420
G1 X81.785 Y87.113 E20.36770
G1 X82.665 Y86.108 E20.45208
G1 X83.346 Y85.368 E20.51559
G1 X84.272 Y84.412 E20.59958
G1 E18.59958 F2400.00000
G92 E0
G1 X136.500 Y151.000 F7800.000
G1 E2.00000 F2400.00000
G1 F1800
G1 X98.500 Y151.000 E4.39953
G1 X98.500 Y84.000 E8.63028
G1 X136.500 Y84.000 E11.02981
G1 X136.500 Y150.925 E15.25583
G1 X136.585 Y151.493 F7800.000
G1 E13.25583 F2400.00000
G92 E0
G1 X129.449 Y82.215 F7800.000
G1 E2.00000 F2400.00000
G1 F1800
G1 X105.551 Y82.215 E3.50904
G1 X105.480 Y81.762 E3.53796
G1 X106.817 Y81.331 E3.62669
G1 X108.636 Y80.842 E3.74562
G1 X110.477 Y80.446 E3.86455
G1 X112.336 Y80.141 E3.98348
G1 X114.208 Y79.930 E4.10241
G1 X116.088 Y79.813 E4.22139
G1 X117.921 Y79.789 E4.33714
G1 X119.472 Y79.838 E4.43513
G1 X121.354 Y79.984 E4.55436
G1 X123.223 Y80.223 E4.67329
G1 X125.077 Y80.555 E4.79222
G1 X126.912 Y80.979 E4.91115
G1 X128.723 Y81.495 E5.03009
G1 X129.523 Y81.766 E5.08341
G1 X129.461 Y82.141 E5.10737
G1 E3.10737 F2400.00000
G92 E0
G1 X134.083 Y83.107 F7800.000
G1 E2.00000 F2400.00000
G1 F1800
G1 X100.910 Y83.107 E4.09477
G1 X100.813 Y82.694 E4.12156
G1 X101.160 Y82.522 E4.14602
G1 X102.926 Y81.749 E4.26777
G1 X104.729 Y81.066 E4.38952
G1 X106.564 Y80.474 E4.51127
G1 X108.426 Y79.975 E4.63301
G1 X110.311 Y79.568 E4.75476
G1 X112.214 Y79.257 E4.87651
G1 X114.130 Y79.041 E4.99826
G1 X116.054 Y78.920 E5.12003
G1 X117.929 Y78.896 E5.23844
G1 X119.521 Y78.946 E5.33897
G1 X121.446 Y79.095 E5.46090
G1 X123.358 Y79.340 E5.58265
G1 X125.256 Y79.680 E5.70440
G1 X127.135 Y80.115 E5.82615
G1 X128.989 Y80.642 E5.94790
G1 X130.815 Y81.262 E6.06964
G1 X132.607 Y81.972 E6.19139
G1 X134.175 Y82.685 E6.30015
G1 X134.099 Y83.034 E6.32269
G1 E4.32269 F2400.00000
G92 E0
G1 X138.285 Y86.020 F7800.000
G1 E2.00000 F2400.00000
G1 F1800
G1 X140.077 Y87.291 E2.13870
G1 X141.557 Y88.455 E2.25763
G1 X142.977 Y89.693 E2.37656
G1 X144.333 Y90.999 E2.49549
G1 X145.623 Y92.372 E2.61442
G1 X146.843 Y93.807 E2.73336
G1 X147.989 Y95.302 E2.85229
G1 X149.059 Y96.852 E2.97122
G1 X150.050 Y98.453 E3.09015
G1 X150.961 Y100.102 E3.20908
G1 X151.788 Y101.794 E3.32802
G1 X152.529 Y103.526 E3.44695
G1 X153.183 Y105.292 E3.56588
G1 X153.748 Y107.089 E3.68481
G1 X154.223 Y108.911 E3.80374
G1 X154.606 Y110.755 E3.92268
G1 X154.897 Y112.622 E4.04197
G1 X155.061 Y114.108 E4.13640
G1 X155.184 Y115.993 E4.25569
G1 X155.212 Y117.877 E4.37462
G1 X155.146 Y119.759 E4.49355
G1 X154.986 Y121.636 E4.61248
G1 X154.733 Y123.502 E4.73142
G1 X154.387 Y125.353 E4.85035
G1 X153.949 Y127.185 E4.96928
G1 X153.420 Y128.991 E5.08811
G1 X152.934 Y130.413 E5.18301
G1 X152.243 Y132.171 E5.30229
G1 X151.467 Y133.888 E5.42123
G1 X150.607 Y135.562 E5.54006
G1 X149.862 Y136.866 E5.63495
G1 X148.851 Y138.463 E5.75424
G1 X147.766 Y140.002 E5.87317
G1 X146.604 Y141.485 E5.99210
G1 X145.371 Y142.908 E6.11103
G1 X144.067 Y144.267 E6.22997
G1 X142.698 Y145.560 E6.34890
G1 X141.266 Y146.783 E6.46783
G1 X139.774 Y147.933 E6.58676
G1 X138.285 Y148.967 E6.70121
G1 X138.285 Y86.095 E10.67130
G1 X137.392 Y84.412 F7800.000
G1 F1800
G1 X139.039 Y85.460 E10.79453
G1 X140.611 Y86.575 E10.91627
G1 X142.127 Y87.768 E11.03802
G1 X143.580 Y89.034 E11.15977
G1 X144.969 Y90.372 E11.28152
G1 X146.289 Y91.777 E11.40327
G1 X147.537 Y93.246 E11.52501
G1 X148.711 Y94.776 E11.64676
G1 X149.806 Y96.363 E11.76851
G1 X150.821 Y98.002 E11.89026
G1 X151.753 Y99.690 E12.01201
G1 X152.600 Y101.422 E12.13375
G1 X153.358 Y103.195 E12.25550
G1 X154.028 Y105.003 E12.37725
G1 X154.606 Y106.842 E12.49900
G1 X155.092 Y108.708 E12.62074
G1 X155.484 Y110.596 E12.74249
G1 X155.782 Y112.504 E12.86446
G1 X155.950 Y114.030 E12.96142
G1 X156.076 Y115.958 E13.08339
G1 X156.105 Y117.886 E13.20514
G1 X156.037 Y119.813 E13.32689
G1 X155.874 Y121.734 E13.44863
G1 X155.615 Y123.644 E13.57038
G1 X155.260 Y125.539 E13.69213
G1 X154.812 Y127.415 E13.81388
G1 X154.272 Y129.261 E13.93538
G1 X153.772 Y130.721 E14.03281
G1 X153.066 Y132.519 E14.15478
G1 X152.271 Y134.276 E14.27653
G1 X151.392 Y135.987 E14.39803
G1 X150.627 Y137.327 E14.49546
G1 X149.593 Y138.959 E14.61742
G1 X148.482 Y140.534 E14.73917
G1 X147.294 Y142.052 E14.86092
G1 X146.031 Y143.509 E14.98267
G1 X144.696 Y144.901 E15.10441
G1 X143.295 Y146.225 E15.22616
G1 X141.828 Y147.477 E15.34791
G1 X140.301 Y148.654 E15.46966
G1 X138.718 Y149.754 E15.59141
G1 X137.392 Y150.579 E15.68997
G1 X137.392 Y84.487 E19.86337
G1 E17.86337 F2400.00000
G92 E0
G1 X129.454 Y152.785 F7800.000
G1 E2.00000 F2400.00000
G1 F1800
G1 X129.525 Y153.239 E2.02899
G1 X128.002 Y153.722 E2.12988
G1 X126.180 Y154.201 E2.24882
G1 X124.339 Y154.589 E2.36765
G1 X122.856 Y154.832 E2.46254
G1 X120.980 Y155.053 E2.58183
G1 X119.100 Y155.180 E2.70076
G1 X117.217 Y155.213 E2.81969
G1 X115.335 Y155.152 E2.93862
G1 X113.458 Y154.997 E3.05755
G1 X111.591 Y154.748 E3.17649
G1 X109.740 Y154.407 E3.29532
G1 X108.276 Y154.069 E3.39022
G1 X106.456 Y153.561 E3.50950
G1 X105.481 Y153.235 E3.57445
G1 X105.554 Y152.785 E3.60322
G1 X129.379 Y152.785 E5.10771
G1 E3.10771 F2400.00000
G92 E0
G1 X134.082 Y151.893 F7800.000
G1 E2.00000 F2400.00000
G1 F1800
G1 X134.179 Y152.307 E2.02686
G1 X133.665 Y152.560 E2.06300
G1 X131.895 Y153.323 E2.18475
G1 X130.088 Y153.997 E2.30650
G1 X128.250 Y154.580 E2.42824
G1 X126.386 Y155.070 E2.55000
G1 X124.503 Y155.466 E2.67149
G1 X122.980 Y155.716 E2.76893
G1 X121.062 Y155.942 E2.89089
G1 X119.138 Y156.072 E3.01264
G1 X117.211 Y156.106 E3.13439
G1 X115.283 Y156.043 E3.25613
G1 X113.362 Y155.884 E3.37788
G1 X111.451 Y155.630 E3.49963
G1 X109.558 Y155.281 E3.62113
G1 X108.055 Y154.934 E3.71856
G1 X106.195 Y154.415 E3.84053
G1 X104.366 Y153.804 E3.96227
G1 X102.570 Y153.103 E4.08402
G1 X100.817 Y152.316 E4.20535
G1 X100.908 Y151.893 E4.23270
G1 X134.007 Y151.893 E6.32279
G1 E4.32279 F2400.00000
G92 E0
G1 X96.714 Y148.985 F7800.000
G1 E2.00000 F2400.00000
G1 F1800
G1 X95.078 Y147.825 E2.12664
G1 X93.588 Y146.664 E2.24593
G1 X92.162 Y145.434 E2.36485
G1 X90.794 Y144.129 E2.48425
G1 X89.502 Y142.768 E2.60272
G1 X88.276 Y141.339 E2.72166
G1 X87.122 Y139.850 E2.84059
G1 X86.044 Y138.306 E2.95952
G1 X85.045 Y136.709 E3.07845
G1 X84.126 Y135.065 E3.19738
G1 X83.291 Y133.377 E3.31632
G1 X82.541 Y131.649 E3.43525
G1 X81.878 Y129.886 E3.55418
G1 X81.304 Y128.092 E3.67311
G1 X80.820 Y126.272 E3.79204
G1 X80.428 Y124.430 E3.91098
G1 X80.128 Y122.572 E4.02981
G1 X79.956 Y121.079 E4.12470
G1 X79.824 Y119.195 E4.24399
G1 X79.786 Y117.312 E4.36292
G1 X79.843 Y115.429 E4.48185
G1 X79.993 Y113.552 E4.60078
G1 X80.237 Y111.684 E4.71972
G1 X80.574 Y109.831 E4.83865
G1 X81.003 Y107.997 E4.95758
G1 X81.524 Y106.181 E5.07687
G1 X82.001 Y104.764 E5.17130
G1 X82.684 Y103.002 E5.29059
G1 X83.451 Y101.282 E5.40952
G1 X84.303 Y99.603 E5.52846
G1 X85.238 Y97.967 E5.64739
G1 X86.253 Y96.381 E5.76632
G1 X87.347 Y94.848 E5.88525
G1 X88.515 Y93.370 E6.00418
G1 X89.756 Y91.953 E6.12312
G1 X91.070 Y90.596 E6.24241
G1 X92.157 Y89.569 E6.33684
G1 X93.588 Y88.336 E6.45613
G1 X95.074 Y87.178 E6.57506
G1 X96.714 Y86.027 E6.70161
G1 X96.714 Y148.910 E10.67240
G1 X97.607 Y150.594 F7800.000
G1 F1800
G1 X95.804 Y149.434 E10.80778
G1 X94.546 Y148.542 E10.90521
G1 X93.022 Y147.355 E11.02717
G1 X91.562 Y146.096 E11.14891
G1 X90.161 Y144.760 E11.27113
G1 X88.839 Y143.366 E11.39241
G1 X87.584 Y141.903 E11.51416
G1 X86.403 Y140.379 E11.63591
G1 X85.299 Y138.798 E11.75766
G1 X84.276 Y137.164 E11.87941
G1 X83.336 Y135.481 E12.00115
G1 X82.481 Y133.753 E12.12290
G1 X81.713 Y131.984 E12.24465
G1 X81.034 Y130.180 E12.36640
G1 X80.447 Y128.343 E12.48815
G1 X79.952 Y126.480 E12.60989
G1 X79.550 Y124.594 E12.73165
G1 X79.244 Y122.694 E12.85315
G1 X79.067 Y121.162 E12.95058
G1 X78.932 Y119.235 E13.07254
G1 X78.893 Y117.307 E13.19429
G1 X78.951 Y115.380 E13.31604
G1 X79.105 Y113.458 E13.43778
G1 X79.355 Y111.546 E13.55953
G1 X79.700 Y109.649 E13.68128
G1 X80.139 Y107.772 E13.80303
G1 X80.672 Y105.915 E13.92499
G1 X81.162 Y104.460 E14.02196
G1 X81.859 Y102.659 E14.14392
G1 X82.645 Y100.898 E14.26567
G1 X83.517 Y99.179 E14.38742
G1 X84.474 Y97.505 E14.50917
G1 X85.514 Y95.881 E14.63092
G1 X86.633 Y94.311 E14.75266
