; generated by Slic3r 1.3.0 on 2022-03-16 at 18:06:02

; external perimeters extrusion width = 0.55mm (4.37mm^3/s)
; perimeters extrusion width = 0.70mm (11.44mm^3/s)
; infill extrusion width = 0.62mm (13.45mm^3/s)
; solid infill extrusion width = 0.70mm (3.81mm^3/s)
; top infill extrusion width = 0.70mm (2.86mm^3/s)

M107
M104 S200 ; set temperature
G28 ; home all axes
G1 Z5 F5000 ; lift nozzle

; Filament gcode

M109 S200 ; set temperature and wait for it to be reached
G21 ; set units to millimeters
G90 ; use absolute coordinates
M82 ; use absolute distances for extrusion
G92 E0
G1 Z0.350 F7800.000
G1 E-2.00000 F2400.00000
G92 E0
G1 X68.967 Y67.769 F7800.000
G1 E2.00000 F2400.00000
G1 F1800
G1 X69.692 Y67.213 E2.02827
G1 X71.190 Y66.348 E2.08178
G1 X72.034 Y65.999 E2.11006
G1 X73.705 Y65.551 E2.16356
G1 X74.611 Y65.432 E2.19184
G1 X75.475 Y65.375 E2.21865
G1 X124.475 Y65.375 E3.73477
G1 X125.340 Y65.432 E3.76158
G1 X126.246 Y65.551 E3.78986
G1 X127.916 Y65.999 E3.84337
G1 X128.760 Y66.348 E3.87164
G1 X130.258 Y67.213 E3.92515
G1 X130.983 Y67.769 E3.95342
G1 X132.206 Y68.992 E4.00693
G1 X132.762 Y69.717 E4.03520
G1 X133.627 Y71.215 E4.08871
G1 X133.977 Y72.059 E4.11699
G1 X134.424 Y73.729 E4.17049
G1 X134.543 Y74.636 E4.19877
G1 X134.600 Y75.500 E4.22558
G1 X134.600 Y125.000 E5.75717
G1 X134.543 Y125.865 E5.78398
G1 X134.424 Y126.771 E5.81226
G1 X133.976 Y128.441 E5.86577
G1 X133.627 Y129.285 E5.89404
G1 X132.762 Y130.783 E5.94755
G1 X132.206 Y131.508 E5.97582
G1 X130.983 Y132.731 E6.02933
G1 X130.258 Y133.287 E6.05760
G1 X128.760 Y134.152 E6.11111
G1 X127.916 Y134.501 E6.13939
G1 X126.246 Y134.949 E6.19290
G1 X125.340 Y135.068 E6.22117
G1 X124.475 Y135.125 E6.24798
G1 X75.475 Y135.125 E7.76410
G1 X74.610 Y135.068 E7.79091
G1 X73.705 Y134.949 E7.81919
G1 X72.034 Y134.501 E7.87270
G1 X71.190 Y134.152 E7.90097
G1 X69.692 Y133.287 E7.95448
G1 X68.967 Y132.731 E7.98275
G1 X67.744 Y131.508 E8.03626
G1 X67.188 Y130.783 E8.06453
G1 X66.324 Y129.285 E8.11804
G1 X65.974 Y128.441 E8.14631
G1 X65.526 Y126.771 E8.19983
G1 X65.407 Y125.865 E8.22810
G1 X65.350 Y125.000 E8.25491
G1 X65.350 Y75.500 E9.78650
G1 X65.407 Y74.635 E9.81332
G1 X65.526 Y73.729 E9.84159
G1 X65.974 Y72.059 E9.89510
G1 X66.323 Y71.215 E9.92337
G1 X67.188 Y69.717 E9.97688
G1 X67.744 Y68.992 E10.00515
G1 X68.914 Y67.822 E10.05634
G1 E8.05634 F2400.00000
G92 E0
G1 X77.362 Y125.000 F7800.000
G1 E2.00000 F2400.00000
G1 F1800
G1 X77.297 Y125.488 E2.01524
G1 X77.109 Y125.943 E2.03047
G1 X76.809 Y126.334 E2.04571
G1 X76.418 Y126.634 E2.06095
G1 X75.963 Y126.822 E2.07619
G1 X75.475 Y126.886 E2.09142
G1 X74.987 Y126.822 E2.10666
G1 X74.532 Y126.634 E2.12190
G1 X74.141 Y126.334 E2.13713
G1 X73.841 Y125.943 E2.15237
G1 X73.653 Y125.488 E2.16761
G1 X73.589 Y125.000 E2.18285
G1 X73.653 Y124.512 E2.19808
G1 X73.841 Y124.057 E2.21332
G1 X74.141 Y123.666 E2.22856
G1 X74.532 Y123.366 E2.24380
G1 X74.987 Y123.178 E2.25903
G1 X75.475 Y123.114 E2.27427
G1 X75.963 Y123.178 E2.28951
G1 X76.418 Y123.366 E2.30474
G1 X76.809 Y123.666 E2.31998
G1 X77.109 Y124.057 E2.33522
G1 X77.297 Y124.512 E2.35046
G1 X77.352 Y124.926 E2.36337
G1 X77.981 Y124.918 F7800.000
G1 F1800
G1 X77.992 Y125.000 E2.36592
G1 X77.906 Y125.651 E2.38625
G1 X77.655 Y126.258 E2.40657
G1 X77.255 Y126.780 E2.42690
G1 X76.733 Y127.180 E2.44723
G1 X76.127 Y127.431 E2.46756
G1 X75.475 Y127.517 E2.48789
G1 X74.824 Y127.431 E2.50821
G1 X74.217 Y127.180 E2.52854
G1 X73.696 Y126.780 E2.54887
G1 X73.296 Y126.258 E2.56920
G1 X73.044 Y125.651 E2.58953
G1 X72.958 Y125.000 E2.60986
G1 X73.044 Y124.349 E2.63018
G1 X73.296 Y123.742 E2.65051
G1 X73.696 Y123.220 E2.67084
G1 X74.217 Y122.820 E2.69117
G1 X74.824 Y122.569 E2.71150
G1 X75.475 Y122.483 E2.73182
G1 X76.127 Y122.569 E2.75215
G1 X76.733 Y122.820 E2.77248
G1 X77.255 Y123.220 E2.79281
G1 X77.655 Y123.742 E2.81314
G1 X77.906 Y124.349 E2.83346
G1 X77.971 Y124.844 E2.84893
G1 X78.601 Y124.837 F7800.000
G1 F1800
G1 X78.622 Y125.000 E2.85402
G1 X78.515 Y125.814 E2.87944
G1 X78.201 Y126.573 E2.90486
G1 X77.700 Y127.225 E2.93028
G1 X77.049 Y127.725 E2.95569
G1 X76.290 Y128.040 E2.98111
G1 X75.475 Y128.147 E3.00653
G1 X74.661 Y128.040 E3.03195
G1 X73.902 Y127.725 E3.05737
G1 X73.250 Y127.225 E3.08279
G1 X72.750 Y126.573 E3.10821
G1 X72.435 Y125.814 E3.13363
G1 X72.328 Y125.000 E3.15905
G1 X72.435 Y124.186 E3.18447
G1 X72.750 Y123.427 E3.20989
G1 X73.250 Y122.775 E3.23530
G1 X73.902 Y122.275 E3.26072
G1 X74.661 Y121.960 E3.28614
G1 X75.475 Y121.853 E3.31156
G1 X76.290 Y121.960 E3.33698
G1 X77.049 Y122.275 E3.36240
G1 X77.700 Y122.775 E3.38782
G1 X78.201 Y123.427 E3.41324
G1 X78.515 Y124.186 E3.43866
G1 X78.591 Y124.763 E3.45667
G1 X78.475 Y124.943 F7800.000
G1 E1.45667 F2400.00000
G92 E0
G1 X76.120 Y126.132 F7800.000
G1 E2.00000 F2400.00000
G1 F1800
G1 X76.607 Y125.645 E2.02142
G1 X76.806 Y125.385 E2.03160
G1 X76.932 Y125.082 E2.04179
G1 X76.974 Y124.757 E2.05199
G1 X76.931 Y124.432 E2.06219
G1 X74.907 Y126.456 E2.15122
G1 X74.604 Y126.331 E2.16142
G1 X74.344 Y126.131 E2.17162
G1 X76.606 Y123.869 E2.27112
G1 X76.346 Y123.669 E2.28131
G1 X76.043 Y123.544 E2.29151
G1 X74.019 Y125.568 E2.38055
G1 X73.976 Y125.243 E2.39074
G1 X74.019 Y124.918 E2.40094
G1 X74.144 Y124.615 E2.41114
G1 X74.343 Y124.355 E2.42131
G1 X74.831 Y123.868 E2.44274
G1 E0.44274 F2400.00000
G92 E0
G1 X122.589 Y125.000 F7800.000
G1 E2.00000 F2400.00000
G1 F1800
G1 X122.653 Y124.512 E2.01524
G1 X122.841 Y124.057 E2.03047
G1 X123.141 Y123.666 E2.04571
G1 X123.532 Y123.366 E2.06095
G1 X123.987 Y123.178 E2.07619
G1 X124.475 Y123.114 E2.09142
G1 X124.963 Y123.178 E2.10666
G1 X125.418 Y123.366 E2.12190
G1 X125.809 Y123.666 E2.13713
G1 X126.109 Y124.057 E2.15237
G1 X126.297 Y124.512 E2.16761
G1 X126.362 Y125.000 E2.18285
G1 X126.297 Y125.488 E2.19808
G1 X126.109 Y125.943 E2.21332
G1 X125.809 Y126.334 E2.22856
G1 X125.418 Y126.634 E2.24380
G1 X124.963 Y126.822 E2.25903
G1 X124.475 Y126.886 E2.27427
G1 X123.987 Y126.822 E2.28951
G1 X123.532 Y126.634 E2.30474
G1 X123.141 Y126.334 E2.31998
G1 X122.841 Y125.943 E2.33522
G1 X122.653 Y125.488 E2.35046
G1 X122.599 Y125.074 E2.36337
G1 X121.969 Y124.918 F7800.000
G1 F1800
G1 X122.044 Y124.349 E2.38115
G1 X122.296 Y123.742 E2.40148
G1 X122.696 Y123.220 E2.42181
G1 X123.217 Y122.820 E2.44214
G1 X123.824 Y122.569 E2.46247
G1 X124.475 Y122.483 E2.48280
G1 X125.127 Y122.569 E2.50312
G1 X125.733 Y122.820 E2.52345
G1 X126.255 Y123.220 E2.54378
G1 X126.655 Y123.742 E2.56411
G1 X126.906 Y124.349 E2.58444
G1 X126.992 Y125.000 E2.60476
G1 X126.906 Y125.651 E2.62509
G1 X126.655 Y126.258 E2.64542
G1 X126.255 Y126.780 E2.66575
G1 X125.733 Y127.180 E2.68608
G1 X125.127 Y127.431 E2.70640
G1 X124.475 Y127.517 E2.72673
G1 X123.824 Y127.431 E2.74706
G1 X123.217 Y127.180 E2.76739
G1 X122.696 Y126.780 E2.78772
G1 X122.296 Y126.258 E2.80805
G1 X122.044 Y125.651 E2.82837
G1 X121.959 Y124.993 E2.84892
G1 X121.350 Y124.837 F7800.000
G1 F1800
G1 X121.435 Y124.186 E2.86925
G1 X121.750 Y123.427 E2.89467
G1 X122.250 Y122.775 E2.92009
G1 X122.902 Y122.275 E2.94550
G1 X123.661 Y121.960 E2.97092
G1 X124.475 Y121.853 E2.99634
G1 X125.290 Y121.960 E3.02176
G1 X126.049 Y122.275 E3.04718
G1 X126.700 Y122.775 E3.07260
G1 X127.201 Y123.427 E3.09802
G1 X127.515 Y124.186 E3.12344
G1 X127.622 Y125.000 E3.14886
G1 X127.515 Y125.814 E3.17428
G1 X127.201 Y126.573 E3.19970
G1 X126.700 Y127.225 E3.22511
G1 X126.049 Y127.725 E3.25053
G1 X125.290 Y128.040 E3.27595
G1 X124.475 Y128.147 E3.30137
G1 X123.661 Y128.040 E3.32679
G1 X122.902 Y127.725 E3.35221
G1 X122.250 Y127.225 E3.37763
G1 X121.750 Y126.573 E3.40305
G1 X121.435 Y125.814 E3.42847
G1 X121.328 Y125.000 E3.45389
G1 X121.340 Y124.911 E3.45666
G1 X121.809 Y124.639 F7800.000
G1 E1.45666 F2400.00000
G92 E0
G1 X123.831 Y123.868 F7800.000
G1 E2.00000 F2400.00000
G1 F1800
G1 X123.343 Y124.355 E2.02142
G1 X123.144 Y124.615 E2.03160
G1 X123.019 Y124.918 E2.04179
G1 X122.976 Y125.243 E2.05199
G1 X123.019 Y125.568 E2.06219
G1 X125.043 Y123.544 E2.15122
G1 X125.346 Y123.669 E2.16142
G1 X125.606 Y123.869 E2.17162
G1 X123.344 Y126.131 E2.27112
G1 X123.604 Y126.331 E2.28132
G1 X123.907 Y126.456 E2.29151
G1 X125.931 Y124.432 E2.38055
G1 X125.974 Y124.757 E2.39074
G1 X125.932 Y125.082 E2.40094
G1 X125.806 Y125.385 E2.41114
G1 X125.607 Y125.645 E2.42131
G1 X125.120 Y126.132 E2.44274
G1 E0.44274 F2400.00000
G92 E0
G1 X124.475 Y77.386 F7800.000
G1 E2.00000 F2400.00000
G1 F1800
G1 X123.987 Y77.322 E2.01524
G1 X123.532 Y77.134 E2.03047
G1 X123.141 Y76.834 E2.04571
G1 X122.841 Y76.443 E2.06095
G1 X122.653 Y75.988 E2.07619
G1 X122.589 Y75.500 E2.09142
G1 X122.653 Y75.012 E2.10666
G1 X122.841 Y74.557 E2.12190
G1 X123.141 Y74.166 E2.13713
G1 X123.532 Y73.866 E2.15237
G1 X123.987 Y73.678 E2.16761
G1 X124.475 Y73.614 E2.18285
G1 X124.963 Y73.678 E2.19808
G1 X125.418 Y73.866 E2.21332
G1 X125.809 Y74.166 E2.22856
G1 X126.109 Y74.557 E2.24379
G1 X126.297 Y75.012 E2.25903
G1 X126.362 Y75.500 E2.27427
G1 X126.297 Y75.988 E2.28951
G1 X126.109 Y76.443 E2.30474
G1 X125.809 Y76.834 E2.31998
G1 X125.418 Y77.134 E2.33522
G1 X124.963 Y77.322 E2.35046
G1 X124.549 Y77.377 E2.36337
G1 X124.557 Y78.006 F7800.000
G1 F1800
G1 X124.475 Y78.017 E2.36592
G1 X123.824 Y77.931 E2.38625
G1 X123.217 Y77.680 E2.40657
G1 X122.696 Y77.280 E2.42690
G1 X122.296 Y76.758 E2.44723
G1 X122.044 Y76.151 E2.46756
G1 X121.958 Y75.500 E2.48789
G1 X122.044 Y74.849 E2.50821
G1 X122.296 Y74.242 E2.52854
G1 X122.696 Y73.720 E2.54887
G1 X123.217 Y73.320 E2.56920
G1 X123.824 Y73.069 E2.58953
G1 X124.475 Y72.983 E2.60986
G1 X125.127 Y73.069 E2.63018
G1 X125.733 Y73.320 E2.65051
G1 X126.255 Y73.720 E2.67084
G1 X126.655 Y74.242 E2.69117
G1 X126.906 Y74.849 E2.71150
G1 X126.992 Y75.500 E2.73182
G1 X126.906 Y76.151 E2.75215
G1 X126.655 Y76.758 E2.77248
G1 X126.255 Y77.280 E2.79281
G1 X125.733 Y77.680 E2.81314
G1 X125.127 Y77.931 E2.83346
G1 X124.631 Y77.996 E2.84893
G1 X124.638 Y78.626 F7800.000
G1 F1800
G1 X124.475 Y78.647 E2.85402
G1 X123.661 Y78.540 E2.87944
G1 X122.902 Y78.225 E2.90486
G1 X122.250 Y77.725 E2.93028
G1 X121.750 Y77.073 E2.95569
G1 X121.435 Y76.314 E2.98111
G1 X121.328 Y75.500 E3.00653
G1 X121.435 Y74.686 E3.03195
G1 X121.750 Y73.927 E3.05737
G1 X122.250 Y73.275 E3.08279
G1 X122.902 Y72.775 E3.10821
G1 X123.661 Y72.460 E3.13363
G1 X124.475 Y72.353 E3.15905
G1 X125.290 Y72.460 E3.18447
G1 X126.049 Y72.775 E3.20989
G1 X126.700 Y73.275 E3.23530
G1 X127.201 Y73.927 E3.26072
G1 X127.515 Y74.686 E3.28614
G1 X127.622 Y75.500 E3.31156
G1 X127.515 Y76.314 E3.33698
G1 X127.201 Y77.073 E3.36240
G1 X126.700 Y77.725 E3.38782
G1 X126.049 Y78.225 E3.41324
G1 X125.290 Y78.540 E3.43866
G1 X124.713 Y78.616 E3.45667
G1 X124.538 Y78.495 F7800.000
G1 E1.45667 F2400.00000
G92 E0
G1 X125.120 Y76.632 F7800.000
G1 E2.00000 F2400.00000
G1 F1800
G1 X125.607 Y76.145 E2.02142
G1 X125.806 Y75.885 E2.03160
G1 X125.932 Y75.582 E2.04179
G1 X125.974 Y75.257 E2.05199
G1 X125.931 Y74.932 E2.06219
G1 X123.907 Y76.956 E2.15122
G1 X123.604 Y76.831 E2.16142
G1 X123.344 Y76.631 E2.17162
G1 X125.606 Y74.369 E2.27112
G1 X125.346 Y74.169 E2.28132
G1 X125.043 Y74.044 E2.29151
G1 X123.019 Y76.068 E2.38055
G1 X122.976 Y75.743 E2.39075
G1 X123.019 Y75.418 E2.40094
G1 X123.144 Y75.115 E2.41114
G1 X123.343 Y74.855 E2.42131
G1 X123.831 Y74.368 E2.44274
G1 E0.44274 F2400.00000
G92 E0
G1 X77.362 Y75.500 F7800.000
G1 E2.00000 F2400.00000
G1 F1800
G1 X77.297 Y75.988 E2.01524
G1 X77.109 Y76.443 E2.03047
G1 X76.809 Y76.834 E2.04571
G1 X76.418 Y77.134 E2.06095
G1 X75.963 Y77.322 E2.07619
G1 X75.475 Y77.386 E2.09142
G1 X74.987 Y77.322 E2.10666
G1 X74.532 Y77.134 E2.12190
G1 X74.141 Y76.834 E2.13713
G1 X73.841 Y76.443 E2.15237
G1 X73.653 Y75.988 E2.16761
G1 X73.589 Y75.500 E2.18285
G1 X73.653 Y75.012 E2.19808
G1 X73.841 Y74.557 E2.21332
G1 X74.141 Y74.166 E2.22856
G1 X74.532 Y73.866 E2.24379
G1 X74.987 Y73.678 E2.25903
G1 X75.475 Y73.614 E2.27427
G1 X75.963 Y73.678 E2.28951
G1 X76.418 Y73.866 E2.30474
G1 X76.809 Y74.166 E2.31998
G1 X77.109 Y74.557 E2.33522
G1 X77.297 Y75.012 E2.35046
G1 X77.352 Y75.426 E2.36337
G1 X77.981 Y75.418 F7800.000
G1 F1800
G1 X77.992 Y75.500 E2.36592
G1 X77.906 Y76.151 E2.38625
G1 X77.655 Y76.758 E2.40657
G1 X77.255 Y77.280 E2.42690
G1 X76.733 Y77.680 E2.44723
G1 X76.127 Y77.931 E2.46756
G1 X75.475 Y78.017 E2.48789
G1 X74.824 Y77.931 E2.50821
G1 X74.217 Y77.680 E2.52854
G1 X73.696 Y77.280 E2.54887
G1 X73.296 Y76.758 E2.56920
G1 X73.044 Y76.151 E2.58953
G1 X72.958 Y75.500 E2.60986
G1 X73.044 Y74.849 E2.63018
G1 X73.296 Y74.242 E2.65051
G1 X73.696 Y73.720 E2.67084
G1 X74.217 Y73.320 E2.69117
G1 X74.824 Y73.069 E2.71150
G1 X75.475 Y72.983 E2.73182
G1 X76.127 Y73.069 E2.75215
G1 X76.733 Y73.320 E2.77248
G1 X77.255 Y73.720 E2.79281
G1 X77.655 Y74.242 E2.81314
G1 X77.906 Y74.849 E2.83346
G1 X77.971 Y75.344 E2.84893
G1 X78.601 Y75.337 F7800.000
G1 F1800
G1 X78.622 Y75.500 E2.85402
G1 X78.515 Y76.314 E2.87944
G1 X78.201 Y77.073 E2.90486
G1 X77.700 Y77.725 E2.93028
G1 X77.049 Y78.225 E2.95569
G1 X76.290 Y78.540 E2.98111
G1 X75.475 Y78.647 E3.00653
G1 X74.661 Y78.540 E3.03195
G1 X73.902 Y78.225 E3.05737
G1 X73.250 Y77.725 E3.08279
G1 X72.750 Y77.073 E3.10821
G1 X72.435 Y76.314 E3.13363
G1 X72.328 Y75.500 E3.15905
G1 X72.435 Y74.685 E3.18447
G1 X72.750 Y73.927 E3.20989
G1 X73.250 Y73.275 E3.23530
G1 X73.902 Y72.775 E3.26072
G1 X74.661 Y72.460 E3.28614
G1 X75.475 Y72.353 E3.31156
G1 X76.290 Y72.460 E3.33698
G1 X77.049 Y72.775 E3.36240
G1 X77.700 Y73.275 E3.38782
G1 X78.201 Y73.927 E3.41324
G1 X78.515 Y74.686 E3.43866
G1 X78.591 Y75.263 E3.45667
G1 X78.475 Y75.443 F7800.000
G1 E1.45667 F2400.00000
G92 E0
G1 X76.120 Y76.632 F7800.000
G1 E2.00000 F2400.00000
G1 F1800
G1 X76.607 Y76.145 E2.02142
G1 X76.806 Y75.885 E2.03160
G1 X76.932 Y75.582 E2.04179
G1 X76.974 Y75.257 E2.05199
G1 X76.931 Y74.932 E2.06219
G1 X74.907 Y76.956 E2.15122
G1 X74.604 Y76.831 E2.16142
G1 X74.344 Y76.631 E2.17162
G1 X76.606 Y74.369 E2.27112
G1 X76.346 Y74.169 E2.28132
G1 X76.043 Y74.044 E2.29151
G1 X74.019 Y76.068 E2.38055
G1 X73.976 Y75.743 E2.39074
G1 X74.019 Y75.418 E2.40094
G1 X74.144 Y75.115 E2.41114
G1 X74.343 Y74.855 E2.42131
G1 X74.831 Y74.368 E2.44274
G1 Z0.650 F7800.000
G1 E0.44274 F2400.00000
G92 E0
G1 X75.475 Y122.984 F7800.000
G1 E2.00000 F2400.00000
G1 F900
G1 X75.997 Y123.053 E2.01420
G1 X76.483 Y123.254 E2.02840
G1 X76.901 Y123.574 E2.04259
G1 X77.221 Y123.992 E2.05679
G1 X77.423 Y124.478 E2.07099
G1 X77.491 Y125.000 E2.08519
G1 X77.423 Y125.522 E2.09938
G1 X77.221 Y126.008 E2.11358
G1 X76.901 Y126.426 E2.12778
G1 X76.483 Y126.746 E2.14198
G1 X75.997 Y126.947 E2.15617
G1 X75.475 Y127.016 E2.17037
G1 X74.953 Y126.947 E2.18457
G1 X74.467 Y126.746 E2.19877
G1 X74.050 Y126.426 E2.21297
G1 X73.729 Y126.008 E2.22716
G1 X73.528 Y125.522 E2.24136
G1 X73.459 Y125.000 E2.25556
G1 X73.528 Y124.478 E2.26976
G1 X73.729 Y123.992 E2.28395
G1 X74.050 Y123.574 E2.29815
G1 X74.467 Y123.254 E2.31235
G1 X74.953 Y123.053 E2.32655
G1 X75.401 Y122.994 E2.33872
G1 X75.392 Y122.354 F7800.000
G1 F900
G1 X75.475 Y122.343 E2.34098
G1 X76.163 Y122.433 E2.35969
G1 X76.804 Y122.699 E2.37840
G1 X77.354 Y123.121 E2.39712
G1 X77.776 Y123.671 E2.41583
G1 X78.042 Y124.312 E2.43454
G1 X78.132 Y125.000 E2.45325
G1 X78.042 Y125.688 E2.47197
G1 X77.776 Y126.329 E2.49068
G1 X77.354 Y126.879 E2.50939
G1 X76.804 Y127.301 E2.52811
G1 X76.163 Y127.567 E2.54682
G1 X75.475 Y127.657 E2.56553
G1 X74.787 Y127.567 E2.58424
G1 X74.147 Y127.301 E2.60296
G1 X73.596 Y126.879 E2.62167
G1 X73.174 Y126.329 E2.64038
G1 X72.909 Y125.688 E2.65909
G1 X72.818 Y125.000 E2.67781
G1 X72.909 Y124.312 E2.69652
G1 X73.174 Y123.671 E2.71523
G1 X73.596 Y123.121 E2.73394
G1 X74.147 Y122.699 E2.75266
G1 X74.787 Y122.433 E2.77137
G1 X75.318 Y122.364 E2.78580
G1 X75.319 Y121.798 F7800.000
G1 F900
G1 X75.475 Y121.777 E2.78905
G1 X76.309 Y121.887 E2.80639
G1 X77.086 Y122.209 E2.82372
G1 X77.754 Y122.721 E2.84106
G1 X78.266 Y123.389 E2.85840
G1 X78.588 Y124.166 E2.87574
G1 X78.698 Y125.000 E2.89308
G1 X78.588 Y125.834 E2.91042
G1 X78.266 Y126.611 E2.92776
G1 X77.754 Y127.279 E2.94510
G1 X77.086 Y127.791 E2.96244
G1 X76.309 Y128.113 E2.97977
